!!!OTL: ES WOLLT EIN MAEDCHEN FRUEH AUFSTEHN
!!!ARE: Europa, Mitteleuropa, Deutschland, Pommern
!!!SCT: E0121A
!!!YEM: Copyright 1995, estate of Helmut Schaffrath.
**kern
*ICvox
*Ivox
*M2/4
*k[b-]
*F:
{8c
=1
8f
16a
16f
8c
8c
=2
8d
16f
16d
8c}
{8c
=3
8d
8d
8b-
8e
=4
4f
8g}
{8g
=5
8a
8a
8b-
8e
=6
4f
8r}
{8c
=7
8a
8f
8a
8cc
=8
8b-
8a
4g}
=9
{8g
8f
8g
8b-
=10
8a
8g
8f}
{8g
=11
8a
8a
8b-
8e
=12
4f
8r}
==
!!!AGN: erzaehlendes Volks - Lied, Schalk -, Schelmen - Lied, Liebe     Ballade ?
!!!ONB: ESAC (Essen Associative Code) Database: ERK1
!!!AMT: simple duple
!!!AIN: vox
!!!EED: Helmut Schaffrath
!!!EEV: 1.0
*-
!!!title: @{OTL} [@{SCT}]
